Artboard/img/icons/decor.svg

<svg width="160" height="160" viewBox="0 0 160 160" fill="none" xmlns="http://www.w3.org/2000/svg">
<path fill-rule="evenodd" clip-rule="evenodd" d="M79.8197 0.224461V0C79.8197 21.7795 82.9775 34.1963 88.9053 45.2816C94.8331 56.3653 103.533 65.0648 114.616 70.9926C125.507 76.8165 137.683 79.9666 158.76 80.0753L159.742 80.0782L158.76 80.0811C137.683 80.1899 125.507 83.34 114.616 89.1638C103.533 95.0916 94.8331 103.791 88.9053 114.875C83.0815 125.766 79.9314 137.942 79.8227 159.019L79.8197 160L79.8168 159.019C79.7081 137.942 76.558 125.766 70.7342 114.875C64.8064 103.791 56.1068 95.0916 45.0232 89.1638C33.9821 83.2596 21.6201 80.1035 0.00173987 80.0784L0 80.0782L0.879219 80.0753C21.9563 79.9666 34.1323 76.8165 45.0232 70.9926C56.1068 65.0648 64.8064 56.3653 70.7342 45.2816C76.6416 34.2344 79.798 21.8648 79.8196 0.224034L79.8197 0.224461Z" fill="#D1C8BD"/>
</svg>

<svg width="160" height="160" fill="none" xmlns="http://www.w3.org/2000/svg"><path fill-rule="evenodd" clip-rule="evenodd" d="M79.82.224V0c0 21.78 3.158 34.196 9.085 45.282 5.928 11.083 14.628 19.783 25.711 25.71 10.891 5.825 23.067 8.975 44.144 9.083l.982.003-.982.003c-21.077.109-33.253 3.259-44.144 9.083-11.083 5.928-19.783 14.627-25.71 25.711-5.825 10.891-8.975 23.067-9.083 44.144l-.003.981-.003-.981c-.109-21.077-3.259-33.253-9.083-44.144-5.928-11.084-14.627-19.783-25.71-25.711C33.981 83.26 21.62 80.104.001 80.078H0l.88-.003c21.076-.108 33.252-3.258 44.143-9.082 11.084-5.928 19.783-14.628 25.711-25.711C76.642 34.234 79.798 21.865 79.82.224z" fill="#D1C8BD"/></svg>
